X: 041
M: C|
L: 1/16
K: Dm
V: 1
[2 EFG2 C2E2 c2G2 E2C2 |: Dd3Td2^c2 d3ed2=c2 | Ad3d3e f3de3^c | dd3f3d e2=c2f3d | c3dc2G2 E2C2G2E2 :|
V: 2 clef=bass middle=d
z2 | d4d4 d4f2e2 | d4d4 B4^c4 | d4d4 d4d4 |1 c4c4 c4c4 :|
[2 c4c4 c4c4 |: d4d4 d4d4 | f4f2e2 d4a2g2 | f4d4 c4A2=B2 | c4c4 c4c4 :|


